img/Ico/Car.svg

<svg width="22" height="22" viewBox="0 0 22 22" fill="none" xmlns="http://www.w3.org/2000/svg">
<path d="M5.30508 12.2502C5.01022 12.2502 4.77119 12.4892 4.77119 12.7839C4.77119 13.0786 5.01022 13.3176 5.30508 13.3176H6.72881C7.02368 13.3176 7.26271 13.0786 7.26271 12.7839C7.26271 12.4892 7.02368 12.2502 6.72881 12.2502H5.30508Z" fill="black"/>
<path d="M14.7373 12.7839C14.7373 12.4892 14.9763 12.2502 15.2712 12.2502H16.6949C16.9898 12.2502 17.2288 12.4892 17.2288 12.7839C17.2288 13.0786 16.9898 13.3176 16.6949 13.3176H15.2712C14.9763 13.3176 14.7373 13.0786 14.7373 12.7839Z" fill="black"/>
<path fill-rule="evenodd" clip-rule="evenodd" d="M5.76771 3C5.52673 3 5.29093 3.06986 5.08887 3.20111C4.88682 3.33237 4.72718 3.51938 4.62932 3.73949L2.11066 9.404H1.0339C0.739034 9.404 0.5 9.64293 0.5 9.93767C0.5 10.2324 0.739034 10.4713 1.0339 10.4713H1.92373V17.7648C1.92373 18.095 2.05498 18.4118 2.2886 18.6453C2.52223 18.8788 2.8391 19.01 3.16949 19.01H5.30508C5.63548 19.01 5.95235 18.8788 6.18597 18.6453C6.4196 18.4118 6.55085 18.095 6.55085 17.7648V16.1638H15.4492V17.7648C15.4492 18.095 15.5804 18.4118 15.814 18.6453C16.0477 18.8788 16.3645 19.01 16.6949 19.01H18.8305C19.1609 19.01 19.4778 18.8788 19.7114 18.6453C19.945 18.4118 20.0763 18.095 20.0763 17.7648V10.4713H20.9661C21.261 10.4713 21.5 10.2324 21.5 9.93767C21.5 9.64293 21.261 9.404 20.9661 9.404H19.8893L17.3707 3.73949C17.2728 3.51938 17.1132 3.33237 16.9111 3.20111C16.7091 3.06986 16.4733 3 16.2323 3H5.76771ZM18.7208 9.404L16.3949 4.17297C16.3809 4.14153 16.3581 4.11481 16.3293 4.09606C16.3004 4.07731 16.2667 4.06733 16.2323 4.06733H5.76771C5.73328 4.06733 5.6996 4.07731 5.67073 4.09606C5.64187 4.11481 5.61906 4.14153 5.60508 4.17297L3.27917 9.404H18.7208ZM2.99153 10.4713V15.0964H19.0085V10.4713H2.99153ZM16.5169 16.1638V17.7648C16.5169 17.812 16.5357 17.8572 16.5691 17.8906C16.6024 17.9239 16.6477 17.9427 16.6949 17.9427H18.8305C18.8777 17.9427 18.923 17.9239 18.9564 17.8906C18.9897 17.8572 19.0085 17.812 19.0085 17.7648V16.1638H16.5169ZM5.48305 16.1638H2.99153V17.7648C2.99153 17.812 3.01028 17.8572 3.04365 17.8906C3.07703 17.9239 3.12229 17.9427 3.16949 17.9427H5.30508C5.35229 17.9427 5.39755 17.9239 5.43093 17.8906C5.4643 17.8572 5.48305 17.812 5.48305 17.7648V16.1638Z" fill="black"/>
<path d="M5.30508 12.2502C5.01022 12.2502 4.77119 12.4892 4.77119 12.7839C4.77119 13.0786 5.01022 13.3176 5.30508 13.3176H6.72881C7.02368 13.3176 7.26271 13.0786 7.26271 12.7839C7.26271 12.4892 7.02368 12.2502 6.72881 12.2502H5.30508Z" stroke="black" stroke-width="0.5" stroke-linecap="round" stroke-linejoin="round"/>
<path d="M14.7373 12.7839C14.7373 12.4892 14.9763 12.2502 15.2712 12.2502H16.6949C16.9898 12.2502 17.2288 12.4892 17.2288 12.7839C17.2288 13.0786 16.9898 13.3176 16.6949 13.3176H15.2712C14.9763 13.3176 14.7373 13.0786 14.7373 12.7839Z" stroke="black" stroke-width="0.5" stroke-linecap="round" stroke-linejoin="round"/>
<path fill-rule="evenodd" clip-rule="evenodd" d="M5.76771 3C5.52673 3 5.29093 3.06986 5.08887 3.20111C4.88682 3.33237 4.72718 3.51938 4.62932 3.73949L2.11066 9.404H1.0339C0.739034 9.404 0.5 9.64293 0.5 9.93767C0.5 10.2324 0.739034 10.4713 1.0339 10.4713H1.92373V17.7648C1.92373 18.095 2.05498 18.4118 2.2886 18.6453C2.52223 18.8788 2.8391 19.01 3.16949 19.01H5.30508C5.63548 19.01 5.95235 18.8788 6.18597 18.6453C6.4196 18.4118 6.55085 18.095 6.55085 17.7648V16.1638H15.4492V17.7648C15.4492 18.095 15.5804 18.4118 15.814 18.6453C16.0477 18.8788 16.3645 19.01 16.6949 19.01H18.8305C19.1609 19.01 19.4778 18.8788 19.7114 18.6453C19.945 18.4118 20.0763 18.095 20.0763 17.7648V10.4713H20.9661C21.261 10.4713 21.5 10.2324 21.5 9.93767C21.5 9.64293 21.261 9.404 20.9661 9.404H19.8893L17.3707 3.73949C17.2728 3.51938 17.1132 3.33237 16.9111 3.20111C16.7091 3.06986 16.4733 3 16.2323 3H5.76771ZM18.7208 9.404L16.3949 4.17297C16.3809 4.14153 16.3581 4.11481 16.3293 4.09606C16.3004 4.07731 16.2667 4.06733 16.2323 4.06733H5.76771C5.73328 4.06733 5.6996 4.07731 5.67073 4.09606C5.64187 4.11481 5.61906 4.14153 5.60508 4.17297L3.27917 9.404H18.7208ZM2.99153 10.4713V15.0964H19.0085V10.4713H2.99153ZM16.5169 16.1638V17.7648C16.5169 17.812 16.5357 17.8572 16.5691 17.8906C16.6024 17.9239 16.6477 17.9427 16.6949 17.9427H18.8305C18.8777 17.9427 18.923 17.9239 18.9564 17.8906C18.9897 17.8572 19.0085 17.812 19.0085 17.7648V16.1638H16.5169ZM5.48305 16.1638H2.99153V17.7648C2.99153 17.812 3.01028 17.8572 3.04365 17.8906C3.07703 17.9239 3.12229 17.9427 3.16949 17.9427H5.30508C5.35229 17.9427 5.39755 17.9239 5.43093 17.8906C5.4643 17.8572 5.48305 17.812 5.48305 17.7648V16.1638Z" stroke="black" stroke-width="0.5" stroke-linecap="round" stroke-linejoin="round"/>
</svg>

<svg width="22" height="22" fill="none" xmlns="http://www.w3.org/2000/svg"><path d="M5.305 12.25a.534.534 0 1 0 0 1.068H6.73a.534.534 0 1 0 0-1.068H5.305zM14.737 12.784c0-.295.24-.534.534-.534h1.424a.534.534 0 1 1 0 1.068H15.27a.534.534 0 0 1-.534-.534z" fill="#000"/><path fill-rule="evenodd" clip-rule="evenodd" d="M5.768 3a1.246 1.246 0 0 0-1.139.74L2.111 9.403H1.034a.534.534 0 1 0 0 1.067h.89v7.294a1.245 1.245 0 0 0 1.245 1.245h2.136a1.246 1.246 0 0 0 1.246-1.245v-1.601h8.898v1.6a1.245 1.245 0 0 0 1.246 1.246h2.136a1.246 1.246 0 0 0 1.245-1.245V10.47h.89a.534.534 0 1 0 0-1.067H19.89l-2.518-5.665A1.245 1.245 0 0 0 16.232 3H5.768zM18.72 9.404l-2.326-5.231a.178.178 0 0 0-.163-.106H5.768a.178.178 0 0 0-.163.106L3.28 9.404h15.442zM2.99 10.471v4.625H19.01v-4.625H2.992zm13.526 5.693v1.6a.178.178 0 0 0 .178.179h2.136a.178.178 0 0 0 .178-.178v-1.601h-2.492zm-11.034 0H2.992v1.6a.178.178 0 0 0 .177.179h2.136a.178.178 0 0 0 .178-.178v-1.601z" fill="#000"/><path d="M5.305 12.25a.534.534 0 1 0 0 1.068H6.73a.534.534 0 1 0 0-1.068H5.305zM14.737 12.784c0-.295.24-.534.534-.534h1.424a.534.534 0 1 1 0 1.068H15.27a.534.534 0 0 1-.534-.534z" stroke="#000" stroke-width=".5" stroke-linecap="round" stroke-linejoin="round"/><path clip-rule="evenodd" d="M5.768 3a1.246 1.246 0 0 0-1.139.74L2.111 9.403H1.034a.534.534 0 1 0 0 1.067h.89v7.294a1.245 1.245 0 0 0 1.245 1.245h2.136a1.246 1.246 0 0 0 1.246-1.245v-1.601h8.898v1.6a1.245 1.245 0 0 0 1.246 1.246h2.136a1.246 1.246 0 0 0 1.245-1.245V10.47h.89a.534.534 0 1 0 0-1.067H19.89l-2.518-5.665A1.245 1.245 0 0 0 16.232 3H5.768zM18.72 9.404l-2.326-5.231a.178.178 0 0 0-.163-.106H5.768a.178.178 0 0 0-.163.106L3.28 9.404h15.442zM2.99 10.471v4.625H19.01v-4.625H2.992zm13.526 5.693v1.6a.178.178 0 0 0 .178.179h2.136a.178.178 0 0 0 .178-.178v-1.601h-2.492zm-11.034 0H2.992v1.6a.178.178 0 0 0 .177.179h2.136a.178.178 0 0 0 .178-.178v-1.601z" stroke="#000" stroke-width=".5" stroke-linecap="round" stroke-linejoin="round"/></svg>
